public/images/home/heroPattern.svg

<svg width="995" height="716" viewBox="0 0 995 716" fill="none" xmlns="http://www.w3.org/2000/svg">
<g opacity="0.4">
<path opacity="0.6" d="M328.971 194.827L615.806 54.9799L617.987 263.252L329.226 402.94L328.971 194.827Z" stroke="#CCCCF5" stroke-width="4"/>
<path opacity="0.7" d="M428.972 304.383L997.883 24.3027L1120.59 325.287L429.229 662.488L428.972 304.383Z" stroke="#CCCCF5" stroke-width="4"/>
<path opacity="0.7" d="M261.005 527.224L816.767 243.268L816.767 583.273L261.229 865.43L261.005 527.224Z" stroke="#CCCCF5" stroke-width="4"/>
<path opacity="0.7" d="M2.00481 874.244L517.767 620.214L517.767 930.252L2.22902 1182.48L2.00481 874.244Z" stroke="#CCCCF5" stroke-width="4"/>
</g>
</svg>

<svg width="995" height="716" fill="none" xmlns="http://www.w3.org/2000/svg"><g opacity=".4" stroke="#CCCCF5" stroke-width="4"><path opacity=".6" d="M328.971 194.827 615.806 54.98l2.181 208.272L329.226 402.94l-.255-208.113z"/><path opacity=".7" d="m428.972 304.383 568.911-280.08 122.707 300.984-691.361 337.201-.257-358.105z"/><path opacity=".7" d="m261.005 527.224 555.762-283.956v340.005L261.229 865.43l-.224-338.206z"/><path opacity=".7" d="m2.005 874.244 515.762-254.03v310.038L2.229 1182.48l-.224-308.236z"/></g></svg>
